X:1
T:Full Fathom Five
T:Full Fathom Five
T:R. Johnson (1612)
T:William Shakespeare (The Tempest)
T:by IMSLP
T:by IMSLP
T:by IMSLP
C:R. Johnson (1612)
Z:William Shakespeare
Z:by IMSLP
%%score 1 { ( 2 4 ) | ( 3 5 ) }
L:1/8
Q:1/4=80
M:4/4
K:G
V:1 treble nm="Voice"
V:2 treble nm="Piano"
V:4 treble 
V:3 bass 
V:5 bass 
V:1
"^Moderato e maestoso" z8 | z8 | z8 ||!mf! G4 G2 G2 | !>!G3 G (AB) (cd) | B6 B c | d3 G B2 (AG) | %7
w: |||Full fa\- thom|five thy fa- * ther *|lies; Of his|bones are co\- ral *|
 A4 A3 B | c6 G2 | G2 A2 B4 | B2 ^c2 d2 A2 | c2 B2 A4 | z2!p! A A B2 A B |!<(! (A3 B) c4!<)! | %14
w: made; Those are|pearls that|were his eyes:|No\- thing of him|that doth fade,|But doth suf\- fer a|sea- * change|
 c2 A2 (de) =f2 | e3 d d4 |[Q:1/4=85]"^Un poco animato e marcato.""^cresc." A2 F2 B2 G2 | %17
w: In\- to some- * thing|rich and~ strange.|Sea\- nymphs hour\- ly|
 c2 A2 d4 |!f! d6 c B | A2 A2!f! c4- | c2 B A G2 G2 | B4 A4 | G8 ||!f! d3 c B2 A2 | G4 z4 | %25
w: ring his knell:|Hark! now I|hear them, Hark!|_ now I hear them,|Ding\- dong,|bell.|Ding\- dong, ding\- dong,|bell,|
 e3 d c2 B2 | A4 z4 | d3 c B2 A2 | G8 |!pp! d3 c B2 A2 | G4 z4 |"^cresc." d3 c B2 A2 | G4 z4 | %33
w: Ding\- dong, ding\- dong,|bell,|Ding\- dong, ding\- dong,|bell,|Ding\- dong, ding\- dong,|bell,|Ding\- dong, ding\- dong,|bell,|
!f! d3 c"^rall." B2 A2 | !fermata!G8 |] %35
w: Ding\- dong, ding\- dong,|bell,|
V:2
!f! [B,DG]4 [CEG]2 [DG]2 | G3 G ABcd | [DGB]8 ||!mf! [B,DG]4 [EG]2 [DG]2 | G4 [CG]2 [CF]2 | %5
 [B,G]6 z2 | [B,D]3 [B,D] [B,G]2 FE | [DF]4 [FA]3 [GB] | [Ac]6 [EG]2 | [EG]2 [FA]2 [GB]4 | %10
 [DB]2 ^c2 [Fd]2 [FA]2 | c2 [GB]2 A4- | [FA]2!p! [FA]2 [DB]2 [DA][B,G] |!<(! [CA]3 [DB] [Ec]4!<)! | %14
 [CA]3 [CG] [D=F]2 [DF]2 | E4 D4 |"_cresc." z2 [A,DF]2 z2 [DG]2 | [EG]2 F2 [B,G]4 | %18
!f! [DBd]6 [Ac][GB] | [FA]4 [CAc]4- | [CAc]2 [GB][FA] [EG]4 | [DB]4 [CA]4 | [B,G]8 || %23
!f! d3 c B2 A2 | G3 =F E2 D2 | [CE]3 [B,D] [A,C]2 [G,B,]2 | [^F,A,]4 D2 EF | [B,DG]4 [DB]2 [CA]2 | %28
 [B,G]8 |!pp! d3 c B2 A2 | G3 =F E2 D2 | [CE]3 [B,D] [A,C]2 [G,B,]2 | [^F,A,]4!<(! D2 EF | %33
 [B,DG]4!<)! [DB]2 [CA]2 | !fermata![B,G]8 |] %35
V:3
 [G,,,G,,]4 [C,,C,]2 [B,,,B,,]2 | [C,,C,]2 [B,,,B,,]2 [A,,,A,,]2 [D,,D,]2 | [G,,,G,,]8 || %3
 G,,4 C,2 B,,2 | C,2 B,,2 A,,2 D,,2 | G,,6 z2 | G,3 F, E,4 | D,4 z4 | (A,,3 B,, C,4) | %9
 C,2 B,,A,, G,,4 | G,2 F,E, D,2 D,2 | E,F, G,2 D,4 | D,2 D,2 G,2 F,G, | =F,2 E,D, C,4 | %14
 =F,3 E, D,2 A,2 | [A,,A,]4 [D,=F,]4 | [D,,D,]4 [B,,,B,,]4 | [A,,,A,,]4 [G,,,G,,]4 | %18
 [G,,,G,,]3 [A,,,A,,] [B,,,B,,]2 [C,,C,]2 | [D,,E,]4 [A,,,A,,]4- | [A,,,A,,]2 [B,,,B,,]2 [C,,C,]4 | %21
 [D,,D,]4 [D,,,D,,]4 | G,,8 || z4 G,3 =F, | G,2 (A,B,) C,2 G,2 | C,4 C,4 | D,3 C, B,,2 A,,2 | %27
 G,,4 D,2 D,,2 | G,,8 | z4 G,3 =F, | G,2 (A,B,) G,2 G,2 | C,4 C,4 | D,3 C, B,,2 A,,2 | %33
 G,,4"^rall." D,2 D,,2 | !fermata!G,,8 |] %35
V:4
 x8 | E2 D2 [CG]2 [DF]2 | x8 || x8 | E2 D2 x4 | x8 | x6 ^C2 | x8 | x8 | x8 | x2 AG x4 | %11
 GA x2 G2 FE | x8 | x8 | x8 | E2 ^C2 D4 | x8 | x2 DC z4 | x6 E2 | x8 | x2 D2 x4 | x8 | x8 || %23
 x4 D4 | x4 C2 B,2 | x8 | x4 D3 C | x4 FG-GF | x8 | x4 D4 | x4 C2 B,2 | x8 | x4 D3 C | x4 FG-GF | %34
 x8 |] %35
V:5
 x8 | x8 | x8 || x8 | x8 | x8 | x8 | x8 | x8 | x8 | x8 | x8 | x8 | x8 | x6 =F,,G,, | x8 | x8 | x8 | %18
 x8 | x8 | x8 | x8 | G,,,8 || x8 | E,2 D,2 x4 | x8 | x8 | x8 | x8 | x8 | E,2 D,2 C,2 x2 | x8 | x8 | %33
 x8 | x8 |] %35

